src/components/00-materials/images-raw/Allergy.svg

<svg width="96" height="96" viewBox="0 0 96 96" fill="none" xmlns="http://www.w3.org/2000/svg">
<path d="M41.5 53.4C42.0142 53.4 42.5169 53.5525 42.9445 53.8382C43.3721 54.1239 43.7053 54.53 43.9021 55.005C44.0989 55.4801 44.1504 56.0029 44.05 56.5073C43.9497 57.0116 43.7021 57.4749 43.3385 57.8385C42.9749 58.2021 42.5116 58.4497 42.0072 58.5501C41.5029 58.6504 40.9801 58.5989 40.505 58.4021C40.0299 58.2053 39.6239 57.8721 39.3382 57.4445C39.0525 57.0169 38.9 56.5143 38.9 56C38.9026 55.3113 39.1774 54.6515 39.6644 54.1645C40.1515 53.6774 40.8112 53.4027 41.5 53.4ZM33.5 64.4C34.0142 64.4 34.5169 64.5525 34.9445 64.8382C35.3721 65.1239 35.7053 65.53 35.9021 66.005C36.0989 66.4801 36.1504 67.0029 36.05 67.5073C35.9497 68.0116 35.7021 68.4749 35.3385 68.8385C34.9749 69.2021 34.5116 69.4497 34.0072 69.5501C33.5029 69.6504 32.9801 69.5989 32.505 69.4021C32.0299 69.2053 31.6239 68.8721 31.3382 68.4445C31.0525 68.0169 30.9 67.5143 30.9 67C30.9026 66.3113 31.1774 65.6515 31.6644 65.1645C32.1515 64.6774 32.8112 64.4027 33.5 64.4V64.4ZM49.5 64.4C50.0142 64.4 50.5169 64.5525 50.9445 64.8382C51.3721 65.1239 51.7053 65.53 51.9021 66.005C52.0989 66.4801 52.1504 67.0029 52.05 67.5073C51.9497 68.0116 51.7021 68.4749 51.3385 68.8385C50.9749 69.2021 50.5116 69.4497 50.0072 69.5501C49.5029 69.6504 48.9801 69.5989 48.505 69.4021C48.0299 69.2053 47.6239 68.8721 47.3382 68.4445C47.0525 68.0169 46.9 67.5143 46.9 67C46.9026 66.3113 47.1774 65.6515 47.6644 65.1645C48.1515 64.6774 48.8112 64.4027 49.5 64.4Z" stroke="#00008F" stroke-width="2" stroke-miterlimit="10"/>
<path d="M22.21 63.93C23.21 77.74 30.45 80.57 41.05 80.57C48.34 80.57 54.85 77.01 58.05 71.27V71.19C58.52 70.43 59.77 68.47 61.22 66.19C63.87 62.03 67.87 55.75 68.33 54.88C69.2517 53.0028 70.5326 51.3245 72.1 49.94C72.7612 49.3381 73.3009 48.615 73.69 47.81C73.8061 47.2722 73.7465 46.7114 73.52 46.21C73.4547 46.0938 73.3558 46 73.2362 45.9411C73.1166 45.8822 72.9819 45.8609 72.85 45.88C71.0609 45.9634 69.3301 46.5415 67.85 47.55C65.543 49.1657 63.6346 51.2861 62.27 53.75C61.58 54.94 61.41 55.75 60.13 55.98C59.8411 56.0283 59.5451 56.0127 59.263 55.934C58.9808 55.8554 58.7194 55.7158 58.4972 55.525C58.2749 55.3343 58.0973 55.097 57.9768 54.83C57.8563 54.563 57.796 54.2729 57.8 53.98V25.24C57.8 23.77 55.61 23.58 54.13 23.58C53.4245 23.58 52.7479 23.8602 52.2491 24.3591C51.7502 24.8579 51.47 25.5345 51.47 26.24V44.45C51.4674 45.1405 51.1912 45.8018 50.702 46.2891C50.2128 46.7764 49.5505 47.05 48.86 47.05C47.43 47.05 47.26 45.88 47.26 44.45V17.1C47.26 15.63 45.07 15.43 43.59 15.43C42.8958 15.4508 42.2371 15.7413 41.7535 16.2397C41.27 16.7382 40.9997 17.4055 41 18.1V44.45C40.9974 45.1405 40.7212 45.8018 40.232 46.2891C39.7428 46.7764 39.0805 47.05 38.39 47.05C36.96 47.05 36.79 45.88 36.79 44.45V22.37C36.79 21.22 34.86 21.28 33.71 21.28C33.1574 21.2826 32.6284 21.504 32.2386 21.8957C31.8488 22.2873 31.63 22.8174 31.63 23.37V46.79C31.63 47.134 31.5618 47.4745 31.4293 47.7919C31.2967 48.1094 31.1025 48.3973 30.8579 48.6392C30.6133 48.881 30.3231 49.0719 30.0042 49.2008C29.6853 49.3296 29.344 49.394 29 49.39C27.57 49.39 27.4 48.23 27.4 46.79V31.15C27.4 30 25.46 30.07 24.31 30.07C23.7583 30.07 23.2293 30.2891 22.8392 30.6792C22.4491 31.0693 22.23 31.5983 22.23 32.15L22.21 63.93Z" stroke="#00008F" stroke-width="2" stroke-linecap="round" stroke-linejoin="round"/>
</svg>

<svg width="96" height="96" viewBox="0 0 96 96" fill="none" xmlns="http://www.w3.org/2000/svg"><path d="M41.5 53.4a2.6 2.6 0 11-2.6 2.6 2.61 2.61 0 012.6-2.6zm-8 11a2.6 2.6 0 11-2.6 2.6 2.61 2.61 0 012.6-2.6v0zm16 0a2.6 2.6 0 11-2.6 2.6 2.61 2.61 0 012.6-2.6z" stroke="#00008F" stroke-width="2" stroke-miterlimit="10"/><path d="M22.21 63.93c1 13.81 8.24 16.64 18.84 16.64 7.29 0 13.8-3.56 17-9.3v-.08c.47-.76 1.72-2.72 3.17-5 2.65-4.16 6.65-10.44 7.11-11.31a16 16 0 013.77-4.94 7 7 0 001.59-2.13 2.57 2.57 0 00-.17-1.6.66.66 0 00-.67-.33 9.68 9.68 0 00-5 1.67 18.53 18.53 0 00-5.58 6.2c-.69 1.19-.86 2-2.14 2.23a2 2 0 01-2.33-2V25.24c0-1.47-2.19-1.66-3.67-1.66a2.66 2.66 0 00-2.66 2.66v18.21a2.61 2.61 0 01-2.61 2.6c-1.43 0-1.6-1.17-1.6-2.6V17.1c0-1.47-2.19-1.67-3.67-1.67A2.67 2.67 0 0041 18.1v26.35a2.61 2.61 0 01-2.61 2.6c-1.43 0-1.6-1.17-1.6-2.6V22.37c0-1.15-1.93-1.09-3.08-1.09a2.09 2.09 0 00-2.08 2.09v23.42a2.6 2.6 0 01-2.63 2.6c-1.43 0-1.6-1.16-1.6-2.6V31.15c0-1.15-1.94-1.08-3.09-1.08a2.08 2.08 0 00-2.08 2.08l-.02 31.78z" stroke="#00008F" stroke-width="2" stroke-linecap="round" stroke-linejoin="round"/></svg>
